X:1
T:Title
%%score { ( 1 3 ) | ( 2 4 ) }
L:1/8
Q:1/4=100
M:2/4
K:F
V:1 treble nm="Grand Piano"
V:3 treble 
V:2 bass 
V:4 bass 
V:1
 [A,F]2 [DF]2 | z2 .A2 | [A,CF]2 [CEG]2 | [CFA]4 | [CFA]2 [^CGA]2 | [DFA]3 [Fd] | z2 =B2 | [Ec]4 | %8
w: J.~W.~Tufts *||||||||
 c4 | [FA]2 [Fc]2 | [Ac][GB] [GB][A,FA] | [FA]2 G2 | A2 A2 | z F, GF | F2 E2 | [A,F]4 |] %16
w: ||||||||
V:2
 [F,,F,]2 [B,,F,]2 | [A,,F,]2 F,G, | C,2 C,2 | F,4 | F,2 E,2 | D,3 [D,A,] | [G,E]2 [G,,G,]2 | %7
 [C,G,]4 | G,E, F,[C,G,] | [C,F,]2 [C,A,]2 | [C,E,]2 .[C,F,]2 | z2 E2 | [F,CF]2 [^F,C_E]2 | %13
 .[G,B,]2 C-[F,A,C] | [C,G,B,]2 [C,G,B,]2 | [F,,F,]4 |] %16
V:3
 x4 | [CF]2 D-[DG] | x4 | x4 | x4 | x4 | c2 DF | x4 | EC D[EB] | x4 | x4 | x4 | x4 | D2 z2 | x4 | %15
 x4 |] %16
V:4
 x4 | z2 B,,2 | x4 | x4 | x4 | x4 | x4 | x4 | C,4 | x4 | x4 | [C,C]4 | x4 | z2 .[E,B,]2 | x4 | %15
 x4 |] %16

